X:1
T:Title
L:1/8
Q:1/4=100
M:4/4
K:Eb
V:1 treble nm="Grand Piano"
V:1
 z G2 A GFED | E3 F EDC=B, | C3 D ED FE/D/ | C G2 F A2 G2- | G c2 =B d2 c2 | z G2 A GFED | %6
 E3 F EDC=B, | C3 D ED FE/D/ | C G2 F A2 G2- | G c2 =B d2 c2 | z c2 d edc=B | c3 B dcB=A | %12
 B3 A cBAG | A3 A BAGF | G4- G G2 G | AGF=E F4 | GFED E4 | FEDC D4- | D4- DGFA | GFED C4 |] %20

